X: 517
T: Denver Belle
C:Paul Warren
B: jims roots
M:4/4
L:1/8
Q: 1/4=100
K:C
V:1 
%TablEdited by Kim Davis
|: "C"eg2 eg3 e | gage dAcd| e2 [e2e2][e2e2][e2e2] | edcA GECD | "G"Bd2 B[g4d]B |
dedB AG2 z |[1 "F"DEFG ABcd | "C"ecdc A[ec] z2:|[2 "F"ABcd ecdc | "C"Ac2 dc2 dc||
|:[K:G] "G"BG (3Bcd g4 | BG (3Bcd b3g | "D7"fgag fdfa | "G"egfg edBc |
"G"BG (3Bcd g4 | BG (3Bcd b3g | "D7"fgag fdfa | [1 "G"[B3g] dc:| [2 "G"g3-a "G7"=f3-g ||
% abcbook-tune_id 6298c2450918ffbceae99285


% abcbook-boost 0
% abcbook-tablature 
% abcbook-transpose 
% abcbook-lastupdated 1654178373970
% abcbook-soundfonts 
% abcbook-repeats 1


